X: 2063
T: Astley's Ride
R: polka
M: 2/4
K: Dmajor
Af|d2d2 d2cd|e2e2 e2fe|dcBA B2c2|defg agfe|
d2d2 d2cd|e2e2 e2fe|dcBA B2c2|d4 d2:|
|:de|f2f2 f2ef|g2g2 gagf|e2e2 e2de|f2f2 fgfe|
d2d2 d2cd|e2e2 e2fe|dcBA B2c2|d4 d2:|

